docs/themes/v2/source/images/new/logo4.svg

<svg fill="none" height="56" viewBox="0 0 133 56" width="133" xmlns="http://www.w3.org/2000/svg"><path d="m98.2789 16.0637c2.8631 0 5.5031.4834 7.8831 1.4874s4.425 2.3798 6.135 4.1647c1.674 1.7849 3.012 3.8672 3.979 6.2098.93 2.3798 1.413 4.9084 1.413 7.6229v3.5325h-29.5615l.1116.3347c.6321 2.1939 1.822 3.9787 3.5697 5.243 1.7476 1.3015 4.0531 1.9336 6.8419 1.9336 4.4623 0 8.0323-2.417 9.5193-4.2019l7.139 5.429c-3.123 3.5697-8.329 7.3997-16.7326 7.3997-2.9004 0-5.6149-.5206-8.0691-1.5617-2.4542-1.004-4.5737-2.417-6.2842-4.1647s-3.0863-3.83-4.0531-6.2098c-.9668-2.3799-1.4502-4.9456-1.4502-7.6601 0-2.7144.4834-5.2802 1.5246-7.66 1.004-2.3798 2.417-4.4621 4.1646-6.2098 1.7477-1.7477 3.8301-3.1235 6.2099-4.1647 2.3798-1.004 4.9455-1.5246 7.66-1.5246zm-29.5246-13.94419v14.68789h7.1767v8.4781h-7.1767v13.1634c0 1.4873.0744 2.7144.2231 3.6441.186.9668.5206 1.7104 1.0412 2.231s1.3015.8925 2.3426 1.0412c.8925.1487 2.1196.2231 3.5698.2231v9.2218h-1.3015c-3.012 0-5.5405-.2603-7.5485-.8181-1.9708-.5577-3.6069-1.4502-4.834-2.7145-1.2271-1.2642-2.1195-2.9375-2.6401-4.9827-.5206-2.0823-.7809-4.6852-.7809-7.7716v-36.40369zm-58.5657 14.68789v37.6308h-9.891115v-37.6308zm122.5604-16.588284v54.219084h-9.928v-54.219084zm-95.0066 15.807484c4.9083 0 8.7755 1.4873 11.5272 4.4621s4.1647 7.2138 4.1275 12.5684v21.344h-10.0027v-19.9682l-.0012-.2142c-.0337-2.9841-.7753-5.3289-2.1555-6.9996-1.4502-1.7105-3.6441-2.6029-6.5073-2.6029-2.417 0-4.5365.8924-6.2842 2.6773-1.6361 1.6733-2.4913 4.2762-2.6029 7.8088v19.3359h-9.8539v-37.6308h9.7795v5.3918l.5578-.7065c1.3015-1.7105 2.9748-3.0491 4.9084-4.0159 1.9708-.9668 4.1275-1.4502 6.5073-1.4502zm60.4249 8.478c-6.8047.0372-9.9654 4.834-9.9654 7.5857l19.9681-.0372c0-2.7516-3.198-7.5485-10.0027-7.5485z" fill="#000"/><path d="m10.4489 0v10.4489h-10.4489v-10.4489z" fill="#2c66b1"/></svg>

<svg width="133" height="56" viewBox="0 0 133 56" fill="none" xmlns="http://www.w3.org/2000/svg">
<path d="M98.2789 16.0637C101.142 16.0637 103.782 16.5471 106.162 17.5511C108.542 18.5551 110.587 19.9309 112.297 21.7158C113.971 23.5007 115.309 25.583 116.276 27.9256C117.206 30.3054 117.689 32.834 117.689 35.5485V39.081H88.1275L88.2391 39.4157C88.8712 41.6096 90.0611 43.3944 91.8088 44.6587C93.5564 45.9602 95.8619 46.5923 98.6507 46.5923C103.113 46.5923 106.683 44.1753 108.17 42.3904L115.309 47.8194C112.186 51.3891 106.98 55.2191 98.5764 55.2191C95.676 55.2191 92.9615 54.6985 90.5073 53.6574C88.0531 52.6534 85.9336 51.2404 84.2231 49.4927C82.5126 47.745 81.1368 45.6627 80.17 43.2829C79.2032 40.903 78.7198 38.3373 78.7198 35.6228C78.7198 32.9084 79.2032 30.3426 80.2444 27.9628C81.2484 25.583 82.6614 23.5007 84.409 21.753C86.1567 20.0053 88.2391 18.6295 90.6189 17.5883C92.9987 16.5843 95.5644 16.0637 98.2789 16.0637ZM68.7543 2.11951V16.8074H75.931V25.2855H68.7543V38.4489C68.7543 39.9362 68.8287 41.1633 68.9774 42.093C69.1634 43.0598 69.498 43.8034 70.0186 44.324C70.5392 44.8446 71.3201 45.2165 72.3612 45.3652C73.2537 45.5139 74.4808 45.5883 75.931 45.5883V54.8101H74.6295C71.6175 54.8101 69.089 54.5498 67.081 53.992C65.1102 53.4343 63.4741 52.5418 62.247 51.2775C61.0199 50.0133 60.1275 48.34 59.6069 46.2948C59.0863 44.2125 58.826 41.6096 58.826 38.5232V2.11951H68.7543ZM10.1886 16.8074V54.4382H0.297485V16.8074H10.1886ZM132.749 0.219116V54.4382H122.821V0.219116H132.749ZM37.7424 16.0266C42.6507 16.0266 46.5179 17.5139 49.2696 20.4887C52.0213 23.4635 53.4343 27.7025 53.3971 33.0571V54.4011H43.3944V34.4329L43.3932 34.2187C43.3595 31.2346 42.6179 28.8898 41.2377 27.2191C39.7875 25.5086 37.5936 24.6162 34.7304 24.6162C32.3134 24.6162 30.1939 25.5086 28.4462 27.2935C26.8101 28.9668 25.9549 31.5697 25.8433 35.1023V54.4382H15.9894V16.8074H25.7689V22.1992L26.3267 21.4927C27.6282 19.7822 29.3015 18.4436 31.2351 17.4768C33.2059 16.51 35.3626 16.0266 37.7424 16.0266ZM98.1673 24.5046C91.3626 24.5418 88.2019 29.3386 88.2019 32.0903L108.17 32.0531C108.17 29.3015 104.972 24.5046 98.1673 24.5046Z" fill="black"/>
<path d="M10.4489 0V10.4489H0V0H10.4489Z" fill="#2C66B1"/>
</svg>
